build/images/decor/discount.svg

<svg width="130" height="40" viewBox="0 0 130 40" fill="none" xmlns="http://www.w3.org/2000/svg">
<path d="M1.79021 11.5558C-0.90034 6.55902 2.71867 0.5 8.39374 0.5H121.606C127.281 0.5 130.9 6.55902 128.21 11.5557L125.833 15.9701C124.478 18.4859 124.478 21.514 125.833 24.0299L128.21 28.4442C130.9 33.441 127.281 39.5 121.606 39.5H8.39374C2.71868 39.5 -0.900343 33.441 1.7902 28.4443L4.16719 24.0299C5.52185 21.5141 5.52185 18.486 4.16719 15.9702L1.79021 11.5558Z" stroke="#00BBD3"/>
</svg>

<svg width="130" height="40" fill="none" xmlns="http://www.w3.org/2000/svg"><path d="M1.79 11.556C-.9 6.559 2.72.5 8.394.5h113.212c5.675 0 9.294 6.059 6.604 11.056l-2.377 4.414a8.498 8.498 0 000 8.06l2.377 4.414c2.69 4.997-.929 11.056-6.604 11.056H8.394C2.719 39.5-.9 33.441 1.79 28.444l2.377-4.414a8.5 8.5 0 000-8.06L1.79 11.556z" stroke="#00BBD3"/></svg>
